X:129
T:Agreable Surprise. THO5.129, The
T:Agreeable Surprise. THO5.129, The
M:6/8
L:1/8
N:Title spelling corrected from "Agreable"
B:Thompson's Complete Collection of 200 Favourite Dances Vol.5
F:https://www.libraryofdance.org/manuals/1780c-Thompson-Compleat-5.pdf
Z:vmp. Peter Dunk 2024
Q:3/8=110
K:A
A2A E2E|F2F E3|A2A A2B|c3 e2E|
A2A E2E|F2F E3|d2f ecA|B3 A3:|
|:ABc cdc|cdc ecA|GAB BcB|BcB BGE|
ABc cdc|cdc ecA|1 ABA E2E|F3 E3:|2 def ecA|B3 A3|]
W:
W:Turn your Partner with the right hand, then with the left ./.
W:Lead down the middle, up again to the top ./:
W:1st 2nd & 3rd Couples Promenade round :/.
W:Then La Poussett :/:

